svg/vu.svg

<?xml version="1.0" encoding="UTF-8"?>
<svg width="600" height="360" version="1.0" viewBox="0 0 950 570" xmlns="http://www.w3.org/2000/svg" xmlns:xlink="http://www.w3.org/1999/xlink">
  <rect width="950" height="285" fill="#d21034"/>
  <rect y="285" width="950" height="285" fill="#009543"/>
  <path d="m0 0 552.81 285-552.81 285z"/>
  <rect y="234" width="950" height="102"/>
  <path d="m0 40.502 474.25 244.5-474.25 244.5z" fill="#fdce12"/>
  <rect y="270" width="950" height="30" fill="#fdce12"/>
  <path d="m0 74.255 408.78 210.75-408.78 210.74z"/>
  <path d="m115.48 339.52v32.476c28.253 0 83.7-21.65 83.7-91.356s-59.144-82.644-76.835-82.644c-17.69 0-72.346 12.674-72.346 69.706s53.6 62.313 64.161 62.313 50.167-9.506 45.679-52.28c0 12.146-13.73 37.758-42.511 37.758-28.78 0-46.734-21.388-46.734-42.51 0-21.124 17.426-49.376 47.79-49.376s52.543 26.931 52.543 54.128c0 27.196-21.386 61.785-55.447 61.785z" fill="#fdce12"/>
  <g id="frond" fill="#fdce12">
    <path d="m90.728 297.24 1.683 1.089s13.367-30.496 49.309-52.18c-4.555 2.475-28.615 14.456-50.992 51.091z" stroke="#fdce12"/>
    <path d="m94.193 292s-4.158-8.515-0.495-12.277c3.664-3.763 1.981 10 1.981 10l1.584-2.277s-2.476-10.397 0.297-12.575c2.772-2.178 1.386 10 1.386 10l1.683-2.178s-1.782-10.099 0.891-11.981c2.674-1.881 0.991 9.506 0.991 9.506l1.98-2.278s-1.485-9.604 1.782-11.881c3.268-2.278 0.396 9.109 0.396 9.109l2.178-2.376s-0.99-8.813 1.783-10.793c2.772-1.98 0.396 8.317 0.396 8.317l1.98-2.079s-0.594-8.218 2.079-10.099c2.674-1.882 0.198 7.822 0.198 7.822l2.08-1.981s-0.495-8.218 2.871-9.802-0.594 7.723-0.594 7.723l2.277-1.98s0.693-9.604 3.565-10.496c2.871-0.891-1.287 8.516-1.287 8.516l2.079-1.684s1.089-8.218 4.257-9.208c3.169-0.99-1.98 7.525-1.98 7.525l2.079-1.584s2.278-8.218 5.248-9.109c2.971-0.891-3.069 7.723-3.069 7.723l1.98-1.386s3.267-7.427 5.941-7.922c2.673-0.495-2.971 6.139-2.971 6.139l2.476-1.485s4.257-7.723 5.743-5.347c1.485 2.377-5.941 5.842-5.941 5.842l-2.476 1.386s9.011-4.257 10.1-2.079-12.377 3.565-12.377 3.565l-2.178 1.485s9.01-2.476 7.921-0.198c-1.089 2.277-10 1.782-10 1.782l-2.08 1.485s9.01-2.178 7.822-0.099-10 1.881-10 1.881l-2.178 1.783s8.812-2.278 7.525 0.396c-1.288 2.673-11.288 2.574-11.288 2.574l-2.475 2.277s9.307-3.168 8.515-0.693c-0.792 2.476-11.387 3.763-11.387 3.763l-2.376 2.376s10-3.366 7.03-0.297c-2.97 3.07-10.198 3.862-10.198 3.862l-2.872 3.465s9.902-5.941 8.515-2.574c-1.386 3.366-11.089 5.644-11.089 5.644l-1.98 2.376s8.911-5.149 8.02-2.277c-0.891 2.871-10.397 5.94-10.397 5.94l-1.584 2.179s10.495-6.238 9.604-3.07c-0.891 3.169-10.891 5.446-10.891 5.446l-1.287 1.98s9.703-5.544 9.802-2.871-11.387 5.347-11.387 5.347l-0.198-2.278z"/>
  </g>
  <use transform="translate(238.5) scale(-1,1)" xlink:href="#frond"/>
</svg>

<?xml version="1.0" encoding="UTF-8"?>
<svg version="1.0" xmlns="http://www.w3.org/2000/svg" xmlns:xlink="http://www.w3.org/1999/xlink" width="600" height="360" viewBox="0,0 950,570">
	<rect width="950" height="285" fill="#d21034"/>
	<rect y="285" width="950" height="285" fill="#009543"/>
	<path d="M 0,0 L 552.8133,285 L 0,570 z" fill="#000"/>
	<rect y="234" width="950" height="102" fill="#000"/>
	<path d="M 0,40.502 L 474.251,284.9995 L 0,529.497 z" fill="#fdce12"/>
	<rect y="270" width="950" height="30" fill="#fdce12"/>
	<path d="M 0,74.25473 L 408.78173,285 L 0,495.745 z" fill="#000"/>
	<path d="M 115.481,339.524 C 115.481,339.524 115.481,360.119 115.481,372 C 143.734,372 199.181,350.35 199.181,280.644 C 199.181,210.938 140.037,198 122.346,198 C 104.656,198 50,210.674 50,267.706 C 50,324.738 103.6,330.019 114.161,330.019 C 124.722,330.019 164.328,320.513 159.84,277.739 C 159.84,289.885 146.11,315.497 117.329,315.497 C 88.549,315.497 70.595,294.109 70.595,272.987 C 70.595,251.863 88.021,223.611 118.385,223.611 C 148.749,223.611 170.928,250.542 170.928,277.739 C 170.928,304.935 149.542,339.524 115.481,339.524 z" fill="#fdce12"/>
	<g id="frond" fill="#fdce12">
		<path d="M 90.728,297.245 L 92.411,298.334 C 92.411,298.334 105.778,267.838 141.72,246.154 C 137.165,248.629 113.105,260.61 90.728,297.245 z" stroke="#fdce12"/>
		<path d="M 94.193,291.997 C 94.193,291.997 90.035,283.482 93.698,279.72 C 97.362,275.957 95.679,289.72 95.679,289.72 L 97.263,287.443 C 97.263,287.443 94.787,277.046 97.56,274.868 C 100.332,272.69 98.946,284.868 98.946,284.868 L 100.629,282.69 C 100.629,282.69 98.847,272.591 101.52,270.709 C 104.194,268.828 102.511,280.215 102.511,280.215 L 104.491,277.937 C 104.491,277.937 103.006,268.333 106.273,266.056 C 109.541,263.778 106.669,275.165 106.669,275.165 L 108.847,272.789 C 108.847,272.789 107.857,263.976 110.63,261.996 C 113.402,260.016 111.026,270.313 111.026,270.313 L 113.006,268.234 C 113.006,268.234 112.412,260.016 115.085,258.135 C 117.759,256.253 115.283,265.957 115.283,265.957 L 117.363,263.976 C 117.363,263.976 116.868,255.758 120.234,254.174 C 123.6,252.59 119.64,261.897 119.64,261.897 L 121.917,259.917 C 121.917,259.917 122.61,250.313 125.482,249.421 C 128.353,248.53 124.195,257.937 124.195,257.937 L 126.274,256.253 C 126.274,256.253 127.363,248.035 130.531,247.045 C 133.7,246.055 128.551,254.57 128.551,254.57 L 130.63,252.986 C 130.63,252.986 132.908,244.768 135.878,243.877 C 138.849,242.986 132.809,251.6 132.809,251.6 L 134.789,250.214 C 134.789,250.214 138.056,242.787 140.73,242.292 C 143.403,241.797 137.759,248.431 137.759,248.431 L 140.235,246.946 C 140.235,246.946 144.492,239.223 145.978,241.599 C 147.463,243.976 140.037,247.441 140.037,247.441 L 137.561,248.827 C 137.561,248.827 146.572,244.57 147.661,246.748 C 148.75,248.926 135.284,250.313 135.284,250.313 L 133.106,251.798 C 133.106,251.798 142.116,249.322 141.027,251.6 C 139.938,253.877 131.027,253.382 131.027,253.382 L 128.947,254.867 C 128.947,254.867 137.957,252.689 136.769,254.768 C 135.581,256.847 126.769,256.649 126.769,256.649 L 124.591,258.432 C 124.591,258.432 133.403,256.154 132.116,258.828 C 130.828,261.501 120.828,261.402 120.828,261.402 L 118.353,263.679 C 118.353,263.679 127.66,260.511 126.868,262.986 C 126.076,265.462 115.481,266.749 115.481,266.749 L 113.105,269.125 C 113.105,269.125 123.105,265.759 120.135,268.828 C 117.165,271.898 109.937,272.69 109.937,272.69 L 107.065,276.155 C 107.065,276.155 116.967,270.214 115.58,273.581 C 114.194,276.947 104.491,279.225 104.491,279.225 L 102.511,281.601 C 102.511,281.601 111.422,276.452 110.531,279.324 C 109.64,282.195 100.134,285.264 100.134,285.264 L 98.55,287.443 C 98.55,287.443 109.045,281.205 108.154,284.373 C 107.263,287.542 97.263,289.819 97.263,289.819 L 95.976,291.799 C 95.976,291.799 105.679,286.255 105.778,288.928 C 105.877,291.601 94.391,294.275 94.391,294.275 L 94.193,291.997 z"/>
	</g>
	<use xlink:href="#frond" transform="translate(238.5) scale(-1,1)"/>
</svg>
